dist/icons/svgs/user-shield-solid.svg

<svg xmlns="http://www.w3.org/2000/svg" width="24" height="24" fill="currentcolor" class="icon-user-shield-solid" viewBox="0 0 24 24">
  <path d="M8.75 12C6.95312 12 5.3125 11.0625 4.41406 9.5C3.51562 7.97656 3.51562 6.0625 4.41406 4.5C5.3125 2.97656 6.95312 2 8.75 2C10.5078 2 12.1484 2.97656 13.0469 4.5C13.9453 6.0625 13.9453 7.97656 13.0469 9.5C12.1484 11.0625 10.5078 12 8.75 12ZM6.95312 13.875H10.5078C11.2109 13.875 11.875 13.9922 12.5 14.1875C12.6172 16.4922 13.5547 19.8516 16.5234 22C16.4453 22 16.4062 22 16.3281 22H1.13281C0.507812 22 0 21.4922 0 20.8672C0 17 3.08594 13.875 6.95312 13.875ZM19.0234 10.8281C19.2188 10.75 19.4922 10.75 19.6875 10.8281L24.375 12.7031C24.7656 12.8594 25 13.2109 25 13.5625C25 16.0625 23.9844 20.1641 19.7266 21.9609C19.4922 22.0391 19.2188 22.0391 18.9844 21.9609C14.7266 20.1641 13.75 16.0625 13.75 13.5625C13.75 13.2109 13.9844 12.8594 14.3359 12.7031L19.0234 10.8281ZM23.0859 14.1875L19.375 12.7031V20.0469C22.0312 18.7578 22.9297 16.1797 23.0859 14.1875Z"/>
</svg>

<svg xmlns="http://www.w3.org/2000/svg" width="24" height="24" fill="currentColor" class="icon-user-shield-solid" viewBox="0 0 24 24">
  <path d="M8.75 12a4.97 4.97 0 0 1-4.336-2.5c-.898-1.523-.898-3.437 0-5C5.313 2.977 6.954 2 8.75 2c1.758 0 3.398.977 4.297 2.5.898 1.563.898 3.477 0 5A4.96 4.96 0 0 1 8.75 12m-1.797 1.875h3.555c.703 0 1.367.117 1.992.313.117 2.304 1.055 5.664 4.023 7.812H1.133A1.134 1.134 0 0 1 0 20.867C0 17 3.086 13.875 6.953 13.875m12.07-3.047a.97.97 0 0 1 .665 0l4.687 1.875c.39.156.625.508.625.86 0 2.5-1.016 6.601-5.273 8.398a1.2 1.2 0 0 1-.743 0c-4.257-1.797-5.234-5.898-5.234-8.398 0-.352.234-.704.586-.86zm4.063 3.36-3.711-1.485v7.344c2.656-1.29 3.555-3.867 3.71-5.86"/>
</svg>
